Papirus/24x24/apps/org.kde.merkuro.calendar.svg

<!-- Created with Inkscape (http://www.inkscape.org/) -->
<svg width="24" height="24" version="1.1" viewBox="0 0 24 24" xmlns="http://www.w3.org/2000/svg">
 <rect x="2" y="4.5" width="20" height="18" ry="2" style="opacity:.2"/>
 <rect x="2" y="6" width="20" height="16" ry="2" style="fill:#e97e10"/>
 <path d="m4 4c-1.1079989 0-2 0.8920011-2 2v2h20v-2c0-1.1079989-0.892001-2-2-2z" style="fill:#643106"/>
 <path d="m4 4c-1.1079989 0-2 0.8920011-2 2v0.5c0-1.1079989 0.8920011-2 2-2h16c1.107999 0 2 0.8920011 2 2v-0.5c0-1.1079989-0.892001-2-2-2z" style="fill:#ffffff;opacity:.1"/>
 <rect x="6" y="2" width="2" height="5" ry="1" style="fill:#351a03"/>
 <rect x="16" y="2" width="2" height="5" ry="1" style="fill:#351a03"/>
 <path d="m12.206261 16.524279 0.916075 1.000056c0.07084 0.08515 0.185699 0.08515 0.256536 0l1.960128-2.154335" stroke="#0097d7" style="fill:none;stroke-width:.375;stroke:#ffffff"/>
 <path d="m8.75 11c-0.4154996 0-0.75 0.3345-0.75 0.75v1.5c0 0.4155 0.3345004 0.75 0.75 0.75h1.5c0.4155 0 0.75-0.3345 0.75-0.75v-1.5c0-0.4155-0.3345-0.75-0.75-0.75zm8 0c-0.4155 0-0.75 0.3345-0.75 0.75v1.5c0 0.4155 0.3345 0.75 0.75 0.75h1.5c0.4155 0 0.75-0.3345 0.75-0.75v-1.5c0-0.4155-0.3345-0.75-0.75-0.75zm-12 4c-0.4154996 0-0.75 0.3345-0.75 0.75v1.5c0 0.4155 0.3345004 0.75 0.75 0.75h1.5c0.4154996 0 0.75-0.3345 0.75-0.75v-1.5c0-0.4155-0.3345004-0.75-0.75-0.75zm4 0c-0.4154996 0-0.75 0.3345-0.75 0.75v1.5c0 0.4155 0.3345004 0.75 0.75 0.75h1.5c0.4155 0 0.75-0.3345 0.75-0.75v-1.5c0-0.4155-0.3345-0.75-0.75-0.75z" style="fill:#ffffff"/>
 <path d="m12.75 11c-0.4155 0-0.75 0.3345-0.75 0.75v1.5c0 0.4155 0.3345 0.75 0.75 0.75h1.5c0.4155 0 0.75-0.3345 0.75-0.75v-1.5c0-0.4155-0.3345-0.75-0.75-0.75zm4 4c-0.4155 0-0.75 0.3345-0.75 0.75v1.5c0 0.4155 0.3345 0.75 0.75 0.75h1.5c0.4155 0 0.75-0.3345 0.75-0.75v-1.5c0-0.4155-0.3345-0.75-0.75-0.75z" style="fill:#ffffff;opacity:.6"/>
</svg>

<svg xmlns="http://www.w3.org/2000/svg" width="24" height="24" version="1.1">
 <rect style="opacity:0.2" width="20" height="16" x="2" y="6.5" ry="2"/>
 <rect style="fill:#e97e10" width="20" height="16" x="2" y="6" ry="2"/>
 <path style="fill:#643106" d="M 4,4 C 2.892,4 2,4.892 2,6 V 8 H 22 V 6 C 22,4.892 21.108,4 20,4 Z"/>
 <path style="opacity:0.1;fill:#ffffff" d="M 4,4 C 2.892,4 2,4.892 2,6 V 6.5 C 2,5.392 2.892,4.5 4,4.5 H 20 C 21.108,4.5 22,5.392 22,6.5 V 6 C 22,4.892 21.108,4 20,4 Z"/>
 <rect style="fill:#351a03" width="2" height="5" x="6" y="2" ry="1"/>
 <rect style="fill:#351a03" width="2" height="5" x="16" y="2" ry="1"/>
 <rect style="opacity:0.2" width="20" height=".5" x="2" y="8"/>
 <rect style="fill:#ffffff" width="3" height="3" x="16" y="11" rx=".75" ry=".75"/>
 <rect style="fill:#ffffff" width="3" height="3" x="8" y="11" rx=".75" ry=".75"/>
 <rect style="fill:#ffffff" width="3" height="3" x="8" y="15" rx=".75" ry=".75"/>
 <rect style="fill:#ffffff" width="3" height="3" x="4" y="15" rx=".75" ry=".75"/>
 <rect style="fill:#f6cb9f" width="3" height="3" x="16" y="15" rx=".75" ry=".75"/>
 <rect style="fill:#f6cb9f" width="3" height="3" x="12" y="11" rx=".75" ry=".75"/>
 <path style="fill:none;stroke:#ffffff;stroke-linecap:round;stroke-linejoin:round" d="M 12.5,16.5 13.5,17.5 15.5,15.5"/>
</svg>
